storage/app/icons/phosphoricons/fill/not-subset-of-fill.svg

<svg xmlns="http://www.w3.org/2000/svg" fill="currentColor" viewBox="0 0 256 256"><path d="M128 80h31.37l-68.54 78.33A48 48 0 0 1 128 80m96-32v160a16 16 0 0 1-16 16H48a16 16 0 0 1-16-16V48a16 16 0 0 1 16-16h160a16 16 0 0 1 16 16m-34.73 10a8 8 0 0 0-11.29.75L173.37 64H128a64 64 0 0 0-47.81 106.49L66 186.73a8 8 0 0 0 12 10.54L92.22 181A63.6 63.6 0 0 0 128 192h48a8 8 0 0 0 0-16h-48a47.63 47.63 0 0 1-25.13-7.13L190 69.27a8 8 0 0 0-.73-11.27"/></svg>

<svg xmlns="http://www.w3.org/2000/svg" viewBox="0 0 256 256" fill="currentColor"><path d="M128,80h31.37L90.83,158.33A48,48,0,0,1,128,80Zm96-32V208a16,16,0,0,1-16,16H48a16,16,0,0,1-16-16V48A16,16,0,0,1,48,32H208A16,16,0,0,1,224,48ZM189.27,58a8,8,0,0,0-11.29.75L173.37,64H128A64,64,0,0,0,80.19,170.49L66,186.73a8,8,0,0,0,12,10.54L92.22,181A63.62,63.62,0,0,0,128,192h48a8,8,0,0,0,0-16H128a47.63,47.63,0,0,1-25.13-7.13L190,69.27A8,8,0,0,0,189.27,58Z"/></svg>
